wilib/img/svg/errado2.svg

<svg xmlns="http://www.w3.org/2000/svg" xmlns:xlink="http://www.w3.org/1999/xlink" preserveAspectRatio="none" width="48" height="43" viewBox="0 0 48 43"><defs><linearGradient id="a" gradientUnits="userSpaceOnUse" x1="26.75" y1="40.15" x2="26.75" y2="2.95"><stop offset="0%" stop-color="#F00"/><stop offset="100%" stop-color="#ED1C24"/></linearGradient><path fill="#FFF" d="M43.25 36.5q1.95-1.9 3.95-5.8l1.4-2.9h-3.2q-5.6 0-10.85-5.05l.05-.1q2-2.65 5.05-4.95 2.8-2.15 3.8-2l3.75.45-1-3q-1.15-3.4-3-5.25-2.1-2.1-4.85-2.1-5.85.15-12.1 7.8-3.55-4.8-4.2-9.65l-.5-3.3-2.7 2q-6.6 5.1-6.75 9.4.05 4.8 6 11.15l.1.15Q12.85 30 9.05 29.9l-4.5-.3 1.95 3.3q2.25 3.7 4.6 5.7 2.6 2.2 5.45 2.2h.05q2.7-.05 5.55-2.75 2.15-1.95 4.8-5.75 7 6.4 11.2 6.5 2.65.05 5.1-2.3z" id="b"/><path fill="url(#a)" d="M43.45 13.7l.85.05Q42.25 7.8 38.35 7.8q-5 0-11.25 7.9l-.85 1.15-1.15-1.4q-4.25-5.55-5.05-11.2-5.95 4.5-5.95 7.8 0 4.05 5.45 9.8l1.3 1.4-1 1.25q-6 7.4-10.8 7.4l-.85-.05q4.1 6.95 8.4 6.95 3.65 0 9.45-8.75l.55-.8 1.7 1.6q6.5 5.95 9.85 5.95 3.85 0 7.25-7-6.4 0-12.45-5.8l-1.05-1 1.1-1.55q2.2-2.95 5.45-5.35 3.25-2.4 5-2.4z" id="c"/><path fill="#FFF" fill-opacity=".349" d="M43.2 13.25q0-1.55-1.45-2.95-1.5-1.5-3.4-1.5-5 0-11.25 7.9l-.85 1.15-1.15-1.4q-4.25-5.55-5.05-11.2-2.75 2.1-3.35 3.1-.4.65-.4 2.5 0 4.05 5.4 9.8l4.5 2.6 2-3q.9-1.2 6-5 5.65-4.2 9-2z" id="e"/><path id="d" stroke="#DB0000" stroke-linejoin="round" stroke-linecap="round" fill="none" d="M32.95 24Q39 29.8 45.4 29.8q-3.4 7-7.25 7-3.35 0-9.85-5.95l-1.7-1.6-.55.8q-5.8 8.75-9.45 8.75-4.3 0-8.4-6.95l.85.05q4.8 0 10.8-7.4l1-1.25-1.3-1.4q-5.45-5.75-5.45-9.8 0-3.3 5.95-7.8.8 5.65 5.05 11.2l1.15 1.4.85-1.15q6.25-7.9 11.25-7.9 3.9 0 5.95 5.95l-.85-.05q-1.75 0-5 2.4T33 21.45L31.9 23l1.05 1z"/></defs><use xlink:href="#Layer0_0_MEMBER_0_FILL" transform="translate(-3.2 -.5)"/><use xlink:href="#b" transform="translate(-3.2 -.5)"/><use xlink:href="#c" transform="translate(-3.2 -.5)"/><use xlink:href="#d" transform="translate(-3.2 -.5)"/><use xlink:href="#e" transform="translate(-3.2 -.5)"/></svg>

<svg xmlns="http://www.w3.org/2000/svg" version="1.1" xmlns:xlink="http://www.w3.org/1999/xlink" preserveAspectRatio="none" x="0px" y="0px" width="48px" height="43px" viewBox="0 0 48 43">
<defs>
<linearGradient id="Gradient_1" gradientUnits="userSpaceOnUse" x1="26.75" y1="40.150000000000006" x2="26.75" y2="2.9499999999999993" spreadMethod="pad">
<stop  offset="0%" stop-color="#FF0000"/>

<stop  offset="100%" stop-color="#ED1C24"/>
</linearGradient>

<g id="Layer0_0_MEMBER_1_FILL">
<path fill="#FFFFFF" stroke="none" d="
M 43.25 36.5
Q 45.2 34.6 47.2 30.7
L 48.6 27.8 45.4 27.8
Q 39.8 27.8 34.55 22.75
L 34.6 22.65
Q 36.6 20 39.65 17.7 42.45 15.55 43.45 15.7
L 47.2 16.15 46.2 13.15
Q 45.05 9.75 43.2 7.9 41.1 5.8 38.35 5.8 32.5 5.95 26.25 13.6 22.7 8.8 22.05 3.95
L 21.55 0.65 18.85 2.65
Q 12.25 7.75 12.1 12.05 12.15 16.85 18.1 23.2
L 18.2 23.35
Q 12.85 30 9.05 29.9
L 4.55 29.6 6.5 32.9
Q 8.75 36.6 11.1 38.6 13.7 40.8 16.55 40.8
L 16.6 40.8
Q 19.3 40.75 22.15 38.05 24.3 36.1 26.95 32.3 33.95 38.7 38.15 38.8 40.8 38.85 43.25 36.5 Z"/>
</g>

<g id="Layer0_0_MEMBER_2_FILL">
<path fill="url(#Gradient_1)" stroke="none" d="
M 43.45 13.7
L 44.3 13.75
Q 42.25 7.8 38.35 7.8 33.35 7.8 27.1 15.7
L 26.25 16.85 25.1 15.45
Q 20.85 9.9 20.05 4.25 14.1 8.75 14.1 12.05 14.1 16.1 19.55 21.85
L 20.85 23.25 19.85 24.5
Q 13.85 31.9 9.05 31.9
L 8.2 31.85
Q 12.3 38.8 16.6 38.8 20.25 38.8 26.05 30.05
L 26.6 29.25 28.3 30.85
Q 34.8 36.8 38.15 36.8 42 36.8 45.4 29.8 39 29.8 32.95 24
L 31.9 23 33 21.45
Q 35.2 18.5 38.45 16.1 41.7 13.7 43.45 13.7 Z"/>
</g>

<g id="Layer0_0_MEMBER_4_FILL">
<path fill="#FFFFFF" fill-opacity="0.34901960784313724" stroke="none" d="
M 43.2 13.25
Q 43.2 11.7 41.75 10.3 40.25 8.8 38.35 8.8 33.35 8.8 27.1 16.7
L 26.25 17.85 25.1 16.45
Q 20.85 10.9 20.05 5.25 17.3 7.35 16.7 8.35 16.3 9 16.3 10.85 16.3 14.9 21.7 20.65
L 26.2 23.25 28.2 20.25
Q 29.1 19.05 34.2 15.25 39.85 11.05 43.2 13.25 Z"/>
</g>

<path id="Layer0_0_MEMBER_3_1_STROKES" stroke="#DB0000" stroke-width="1" stroke-linejoin="round" stroke-linecap="round" fill="none" d="
M 32.95 24
Q 39 29.8 45.4 29.8 42 36.8 38.15 36.8 34.8 36.8 28.3 30.85
L 26.6 29.25 26.05 30.05
Q 20.25 38.8 16.6 38.8 12.3 38.8 8.2 31.85
L 9.05 31.9
Q 13.85 31.9 19.85 24.5
L 20.85 23.25 19.55 21.85
Q 14.1 16.1 14.1 12.05 14.1 8.75 20.05 4.25 20.85 9.9 25.1 15.45
L 26.25 16.85 27.1 15.7
Q 33.35 7.8 38.35 7.8 42.25 7.8 44.3 13.75
L 43.45 13.7
Q 41.7 13.7 38.45 16.1 35.2 18.5 33 21.45
L 31.9 23 32.95 24 Z"/>
</defs>

<g transform="matrix( 1, 0, 0, 1, -3.2,-0.5) ">
<use xlink:href="#Layer0_0_MEMBER_0_FILL"/>
</g>

<g transform="matrix( 1, 0, 0, 1, -3.2,-0.5) ">
<use xlink:href="#Layer0_0_MEMBER_1_FILL"/>
</g>

<g transform="matrix( 1, 0, 0, 1, -3.2,-0.5) ">
<use xlink:href="#Layer0_0_MEMBER_2_FILL"/>
</g>

<g transform="matrix( 1, 0, 0, 1, -3.2,-0.5) ">
<use xlink:href="#Layer0_0_MEMBER_3_1_STROKES"/>
</g>

<g transform="matrix( 1, 0, 0, 1, -3.2,-0.5) ">
<use xlink:href="#Layer0_0_MEMBER_4_FILL"/>
</g>
</svg>
